X:1
T:title
M:4/4
Q:120
L:1/8
R:Reel
K:C
e' ^g'3 ^C ^a'e2 |  _d'4D ^D3 |  _F3 ^d' _D4 |  _c' ^C3 _D _e3 | D3 ^b'4 _c' |  _f'2c'2 ^f4 |  ^b3 ^e'E3 _F |  _E2 _e3Gc' _b | 